X:1
T:Title
%%score { ( 1 3 ) | ( 2 4 ) }
L:1/8
M:4/4
K:Ab
V:1 treble nm="Grand Piano"
V:3 treble 
V:2 bass 
V:4 bass 
V:1
 z4 z2[Q:1/4=100] E>E | A>A A>B c2 A>c | B4 [CA]4 | B2 B>=A B2 c>B |[M:3/4] A2- [DA-]>[DA-] [CA]2 | %5
[M:1/4] E>E |[M:4/4] A>A A>B c2 A>c | B4 A4 | B2 B>=A B2 c>[_A=d] | e2- [Ge-]>[Ae-] [Be]2 z2 | %10
 c e2 c e2 f>e | [Ec]2- [E-Ac-]2 [EAc]2 z2 | [EGd] [EGd]2 [EGB] [B,EG]2 F>E | c6 z2 | c>e e>c e4 | %15
 c>[EB] [FA]>[DF] [CA]4 | c e2 c [DGB]2 [CEA]>[B,EG] |[M:3/4] A6 |] %18
V:2
 z4 z2 [A,C]>[A,C] | [A,C]>[A,C] [A,C]>[A,D] [A,E]2 [A,C]>[A,E] | [E,G,D]4 [A,,A,]4 | %3
 [E,G,E]2 [E,G,E]>[E,_G,E] [E,=G,E]2 [E,A,E]>[E,G,D] |[M:3/4] z2 F,>F, E,2 |[M:1/4] [A,C]>[A,C] | %6
[M:4/4] [A,C]>[A,C] [A,C]>[A,D] [A,E]2 [A,C]>[A,E] | [E,G,D]4 [F,A,C]4 | %8
 [E,G,E]2 [E,G,E]>[E,_G,E] [E,=G,E]2 [A,E]>[_G,B,] | B,2 B,>[K:treble]C D2 z2 | %10
 [A,EA] [A,CA]2 [A,EA] [A,CA]2 D>C | A,2 E,2 A,2 z2 | E, E,2 E, E,2 D>C | A,E,C,E, A,,2 z2 | %14
 [A,EA]>[A,CA] [A,CA]>[A,EA] [A,CA]4 | [A,E]>[C,A,] [D,D]>[D,A,] [A,,A,]4 | %16
 [A,E] [A,CE]2 [A,E] E,2 E,>E, |[M:3/4] z2 D>D C2 |] %18
V:3
 x8 | x8 | x8 | x8 |[M:3/4] [A,C]2 z2 z2 |[M:1/4] x2 |[M:4/4] x8 | x8 | x8 | G2 z2 z4 | x8 | %11
 A2 z2 z4 | x8 | E2 E2 E2 z2 | x8 | x8 | x8 |[M:3/4] [CE]2 F>F E2 |] %18
V:4
 x8 | x8 | x8 | x8 |[M:3/4] A,,6 |[M:1/4] x2 |[M:4/4] x8 | x8 | x8 | E,6[K:treble] z2 | x8 | x8 | %12
 x8 | x8 | x8 | x8 | x8 |[M:3/4] A,,6 |] %18

